X:25
T:Les Lanciers. ET.25
T:Julia, a Quadrille,aka. ET.25
M:C
L:1/8
Q:1/4=120
S:Eliza Tennyson MS, Lincolnshire,1822
R:Quadrille
O:England;Lincolnshire;Somersby
Z:vmp.R.Greig 2012 <http://www.village-music-project.org.uk>
K:C
{a}g>^fg>a g>=fe>d|c2c2 {d}cBcd|e2e2 {f}e>de.f|c2c2c2ef|!
{a}g>^fg>a g>=fe>d|c2c2cBcd|e2e2d>ef>d|c2e2″cr.in ms”c4:|!
c>Bc>de2zc|cBdBG2AB|c>Bc>d edec|cBdBG2z2|!
g>fe>f g>ab>c’|g>fe>f g>ab>c’|e2e2 d>ef>d|c2e2c2ef!D.C.!|]

